svg/hide_panel_right.svg

<svg xmlns="http://www.w3.org/2000/svg" viewBox="0 0 24 24"><defs><style>.cls-1{fill:none}</style></defs><title>hide_panel_right</title><path d="M0 0h24v24H0Z" class="cls-1"/><path d="M0 0h24v24H0Z" class="cls-1"/><path d="M0 0h24v24H0Z" class="cls-1"/><path d="M15.89 5H3v14h12.89ZM7.65 15.46l2.58-2.59H4.56v-2h5.67L7.65 8.28l1.41-1.41 5 5-5 5ZM17.89 4.98H21v14.04h-3.11z" class="cls-1"/><path d="M9.06 6.87 7.65 8.28l2.58 2.59H4.56v2h5.67l-2.58 2.59 1.41 1.41 5-5z"/><path d="M21 3H3a2 2 0 0 0-2 2v14a2 2 0 0 0 2 2h18a2 2 0 0 0 2-2V5a2 2 0 0 0-2-2M3 5h12.89v14H3Zm18 14h-3.11V5H21Z"/></svg>

<svg xmlns="http://www.w3.org/2000/svg" height="24" width="24" viewBox="0 0 24 24">
  <defs>
    <style>
      .cls-1 {
        fill: none;
      }
    </style>
  </defs>
  <title>hide_panel_right</title>
  <path class="cls-1" d="M0,0H24V24H0Z" />
  <path class="cls-1" d="M0,0H24V24H0Z" />
  <path class="cls-1" d="M0,0H24V24H0Z" />
  <path class="cls-1" d="M15.89,5H3V19H15.89ZM7.65,15.46l2.58-2.59H4.56v-2h5.67L7.65,8.28,9.06,6.87l5,5-5,5Z" />
  <rect class="cls-1" x="17.89" y="4.98" width="3.11" height="14.04" />
  <polygon points="9.06 6.87 7.65 8.28 10.23 10.87 4.56 10.87 4.56 12.87 10.23 12.87 7.65 15.46 9.06 16.87 14.06 11.87 9.06 6.87" />
  <path d="M21,3H3A2,2,0,0,0,1,5V19a2,2,0,0,0,2,2H21a2,2,0,0,0,2-2V5A2,2,0,0,0,21,3ZM3,5H15.89V19H3ZM21,19H17.89V5H21Z" />
</svg>
